X:1
T:Där borta
T:Elfrida Andrée (1841-1923)
T:Text: Viktor Rydberg
T:ur Drömliv I
T:©PA Aglert Edition may be freely distributed, duplicated, performed and recorded
T:©PA Aglert Edition may be freely distributed, duplicated, performed and recorded
T:©PA Aglert Edition may be freely distributed, duplicated, performed and recorded
C:Ludvig Norman (1831-1885)
Z:©PA Aglert
Z:Edition may be freely distributed, duplicated, performed and recorded
%%score [ 1 2 3 4 ]
L:1/8
Q:1/4=90
M:2/4
K:Eb
V:1 treble nm="S"
V:2 treble nm="A"
V:3 treble-8 nm="T"
V:4 bass nm="B"
V:1
!pp!"^Långsamt" EE | E2 CD |!<(! E2!<)! AG | (FA)!>(! dc!>)! | G2 GG | G2 GG | G2 GG | %7
w: Då vi|van- dra vid|bäc- kar- nas|skug- * ga- de|lopp, då vi|drö- ja vid|fors och vid|
w: Och när|må- nen en|spång ö- ver|böl- * jor- na|slår av sitt|speg- la- de|glit- ter från|
 (GF)!>(! BA!>)! | G2 GG | G2 GG | !>!c2 GG | c2 cc | e2 ee |!<(! e2!<)!!>(! fe!>)! | (eB) dc | %15
w: skum- * mig kas-|kad, skall du|skå- da med|tryg- gat o-|död- lig- hets-|hopp, hu- ru|virv- lar- na|fly _ med de|
w: strand _ och till|strand, skall du|skön- ja i|dröm- mar den|strål- väg, som|går till det|e- vi- ga|hän _ från för-|
!>(! (cB)!>)! EF | G2"^cresc." AA | (G=B)!<(! de!<)! | c2!>(! Fc!>)! | c2 GA | (A3 A | %21
w: viss- * na- de|blad, hu- ru|virv- * lar- na|fly med de|viss- na- de,|viss- *|
w: gän- * gel- sens|land, till det|e- * vi- ga|hän från för-|gän- gel- sens|land, för-|
"^rit.""^rit.""^rit.""^rit." A2)!>(! G=B | !fermata!c4!>)! |] %23
w: * na- de|blad.|
w: gän- gel- sens|land.|
V:2
!pp! CC | C2 CC |!<(! C2!<)! EE | F2!>(! FF!>)! | E2 EE | D2 FF | D2 GF | (ED)!>(! DD!>)! | D2 DD | %9
w: Då vi|van- dra vid|bäc- kar- nas|skug- ga- de|lopp, då vi|drö- ja vid|fors och vid|skum- * mig kas-|kad, skall du|
w: Och när|må- nen en|spång ö- ver|böl- jor- na|slår av sitt|speg- la- de|glit- ter från|strand _ och till|strand, skall du|
 D2 CC | !>!C2 EE | A2 AA | G2 GG |!<(! A2!<)!!>(! AA!>)! | E2 EE |!>(! (ED)!>)! CD | %16
w: skå- da med|tryg- gat o-|död- lig- hets-|hopp, hu- ru|virv- lar- na|fly med de|viss- * na- de|
w: skön- ja i|dröm- mar den|strål- väg, som|går till det|e- vi- ga|hän från för-|gän- * gel- sens|
 E2"^cresc." ED | (D2!<(! =B2!<)! | c2)!>(! CA!>)! | G3 E |!<(! (E2 FE!<)! | D2) DF | %22
w: blad, med de|viss- *|* na- de|blad, de|viss- * *|* na- de|
w: land, från för-|gän- *|* gel- sens|land, för-|gän- * *|* gel- sens|
!>(! !fermata!E4!>)! |] %23
w: blad.|
w: land.|
V:3
!pp! GG | G2 AA |!<(! G2!<)! cB | A2!>(! AA!>)! | c2 cc | =B2 dc | =B2 ed | c2!>(! cc!>)! | %8
w: Då vi|van- dra vid|bäc- kar- nas|skug- ga- de|lopp, då vi|drö- ja vid|fors och vid|skum- mig kas-|
w: Och när|må- nen en|spång ö- ver|böl- jor- na|slår av sitt|speg- la- de|glit- ter från|strand och till|
 =B2 BB | =B2 cG | !>!A2 cc | (ce)!<(! dc!<)! | [eg]2 BB |!<(! c2!<)!!>(! cc!>)! | B2 AA | %15
w: kad, skall du|skå- da med|tryg- gat o-|död- * lig- hets-|hopp, hu- ru|virv- lar- na|fly med de|
w: strand, skall du|skön- ja i|dröm- mar den|strål- * väg, som|går till det|e- vi- ga|hän från för-|
!>(! A2!>)! AA | G2"^cresc." cc | (=Bd!<(! f2-!<)! | f2)!>(! fd!>)! | e3 c | (c4 | c2)!>(! =Bd | %22
w: viss- na- de|blad, med de|viss- * *|* na- de|blad, de|viss-|* na- de|
w: gän- gel- sens|land, från för-|gän- * *|* gel- sens|land, för-|gän-|* gel- sens|
 !fermata!c4!>)! |] %23
w: blad.|
w: land.|
V:4
!pp! C,C, | C,2 C,C, |!<(! C,2!<)! C,C, | C,2!>(! C,C,!>)! | C,2 CC | G,2 G,G, | G,2 G,G, | %7
w: Då vi|van- dra vid|bäc- kar- nas|skug- ga- de|lopp, då vi|drö- ja vid|fors och vid|
w: Och när|må- nen en|spång ö- ver|böl- jor- na|slår av sitt|speg- la- de|glit- ter från|
 A,2!>(! F,F,!>)! | G,2 F,F, | E,2 E,E, | !>!E,2 E,E, | F,2 F,F, | E,2 E,E, | %13
w: skum- mig kas-|kad, skall du|skå- da med|tryg- gat o-|död- lig- hets-|hopp, hu- ru|
w: strand och till|strand, skall du|skön- ja i|dröm- mar den|strål- väg, som|går till det|
!<(! A,2!<)!!>(! F,A,!>)! | G,2 A,A,, |!>(! B,,2!>)! B,,B,, | E,2"^cresc." E,F, | (G,4 | %18
w: virv- lar- na|fly med de|viss- na- de|blad, med de|viss-|
w: e- vi- ga|hän från för-|gän- gel- sens|land, från för-|gän-|
!<(! A,2)!>(! A,F,!<)!!>)! | G,3 F, | F,4- | F,2 G,G, |!>(! !fermata!C,4!>)! |] %23
w: * na- de|blad, de|viss-|* na- de|blad.|
w: * gel- sens|land, för-|gän-|* gel- sens|land.|

